X: 30030
T: Off To California
R: hornpipe
M: 4/4
K: Gmajor
|:GFGB AGED|GFGB d2d2|egge dBBG|ABAG E2D2|
GFGB AGED|GFGB d2d2|egge dBBG|1 A2G2 G2DE:|2 A2G2 G2Gg||
|:gfeg fed2|edBd edBd|g3d edBG|ABAG E2D2|
GFGB AGED|GFGB d2d2|egge dBBG|1 A2G2 G2Gg:|2 A2G2 G2DE||

